frontend/public/svg/interface/right-align-2.svg

<svg width="112" height="121" viewBox="0 0 112 121" fill="none" xmlns="http://www.w3.org/2000/svg">
<g clip-path="url(#clip0)">
<path d="M109.081 56.3949C109.493 70.8562 109.893 86.7658 110.437 102.671C110.568 106.439 111.242 110.186 111.522 113.954C111.642 115.271 111.492 116.598 111.081 117.854C109.979 120.918 106.754 121.353 104.887 118.646C103.928 117.283 103.29 115.723 103.018 114.081C102.234 108.471 101.278 102.835 101.156 97.1919C100.699 75.9402 100.367 54.6815 100.361 33.4251C100.361 24.3176 101.255 15.2101 101.786 6.10256C101.854 4.87964 102.066 3.66884 102.416 2.49466C102.58 1.89403 102.947 1.36848 103.456 1.00697C103.965 0.645466 104.583 0.470295 105.207 0.511206C106.608 0.511206 107.592 1.18122 107.827 2.59289C108.087 4.01035 108.234 5.44601 108.269 6.88653C108.334 16.5691 108.28 26.253 108.407 35.9349C108.49 42.2705 108.815 48.6086 109.081 56.3949Z" fill="black"/>
<path d="M45.924 101.024C33.2021 100.559 20.4795 100.113 7.75953 99.6045C6.42742 99.5479 5.11023 99.3026 3.84781 98.8746C3.04113 98.6111 2.34273 98.092 1.85838 97.3972C1.37403 96.7025 1.13011 95.8698 1.16355 95.0241C1.15022 94.1777 1.42602 93.3509 1.94573 92.6808C2.46546 92.0108 3.19828 91.5359 4.02412 91.3349C5.30948 90.992 6.64069 90.8502 7.96984 90.9153C14.4439 91.1169 20.9159 91.3667 27.3857 91.666C43.8955 92.4115 60.4047 93.1694 76.9135 93.939C79.8132 94.0691 82.7247 94.017 85.6211 94.1628C86.7259 94.2083 87.8144 94.4464 88.8369 94.8673C89.4604 95.1386 89.9821 95.5985 90.3282 96.1827C90.6736 96.7669 90.8244 97.4454 90.7604 98.12C90.78 98.8557 90.558 99.5778 90.1284 100.176C89.6994 100.775 89.0856 101.218 88.3811 101.438C86.9897 101.848 85.5434 102.045 84.0933 102.023C75.3876 101.844 66.6832 101.594 57.9793 101.32C53.9624 101.19 49.9481 100.958 45.9338 100.772L45.924 101.024Z" fill="black"/>
<path d="M65.4428 56.8169C70.9116 57.0186 76.3819 57.1792 81.847 57.4538C83.0674 57.5214 84.2649 57.8079 85.3827 58.2995C86.0689 58.5717 86.6422 59.0668 87.0105 59.7044C87.3781 60.3421 87.5191 61.085 87.4101 61.8125C87.3585 62.5454 87.0653 63.2406 86.575 63.7896C86.0846 64.3385 85.4258 64.7101 84.701 64.8465C83.6126 65.0833 82.5052 65.2297 81.3919 65.2831C78.9375 65.3852 76.4785 65.3748 74.0222 65.447C65.877 65.6857 57.7322 65.9869 49.5848 66.1476C48.0414 66.1932 46.5055 65.9173 45.0756 65.3371C44.2807 64.9822 43.6162 64.3899 43.1738 63.6423C42.7315 62.8947 42.5332 62.0286 42.6064 61.1639C42.6796 60.2991 43.0207 59.4784 43.5824 58.8152C44.1442 58.152 44.899 57.679 45.7422 57.4617C46.8088 57.1513 47.9118 56.9819 49.0226 56.9581C54.4943 56.9086 59.9672 56.9354 65.4402 56.9354L65.4428 56.8169Z" fill="black"/>
</g>
<defs>
<clipPath id="clip0">
<rect width="111" height="121" fill="white" transform="translate(0.777344)"/>
</clipPath>
</defs>
</svg>

<svg xmlns="http://www.w3.org/2000/svg" width="112" height="121" fill="none" viewBox="0 0 112 121"><g fill="#000" clip-path="url(#a)"><path d="M109.081 56.395c.412 14.461.812 30.37 1.356 46.276.131 3.768.805 7.515 1.085 11.283a9.7 9.7 0 0 1-.441 3.9c-1.102 3.064-4.327 3.499-6.194.792a11.1 11.1 0 0 1-1.869-4.565c-.784-5.61-1.74-11.246-1.862-16.89-.457-21.25-.789-42.51-.795-63.766 0-9.107.894-18.215 1.425-27.322.068-1.223.28-2.434.63-3.608a2.7 2.7 0 0 1 1.04-1.488 2.7 2.7 0 0 1 1.751-.496c1.401 0 2.385.67 2.62 2.082a27.5 27.5 0 0 1 .442 4.294c.065 9.682.011 19.366.138 29.048.083 6.335.408 12.674.674 20.46m-63.157 44.629c-12.722-.465-25.444-.911-38.164-1.42a14 14 0 0 1-3.912-.73 3.9 3.9 0 0 1-1.99-1.477 3.88 3.88 0 0 1-.694-2.373 3.73 3.73 0 0 1 .782-2.343 3.75 3.75 0 0 1 2.078-1.346 12.9 12.9 0 0 1 3.946-.42q9.711.303 19.416.751 24.765 1.119 49.528 2.273c2.9.13 5.81.078 8.707.224a9.5 9.5 0 0 1 3.216.704 3.21 3.21 0 0 1 1.924 3.253 3.37 3.37 0 0 1-.633 2.056 3.4 3.4 0 0 1-1.747 1.262 14.4 14.4 0 0 1-4.288.585c-8.705-.179-17.41-.429-26.114-.703-4.017-.13-8.03-.362-12.045-.548zm19.519-44.207c5.469.202 10.939.362 16.404.637a10.2 10.2 0 0 1 3.536.846 3.255 3.255 0 0 1 2.027 3.513 3.3 3.3 0 0 1-.835 1.977c-.49.548-1.15.92-1.874 1.057a20 20 0 0 1-3.31.436c-2.454.102-4.913.092-7.369.164-8.145.239-16.29.54-24.437.7a11.1 11.1 0 0 1-4.51-.81 4.2 4.2 0 0 1-1.901-1.695 4.175 4.175 0 0 1 .408-4.827 4.2 4.2 0 0 1 2.16-1.353c1.067-.31 2.17-.48 3.28-.504 5.472-.05 10.945-.023 16.418-.023z"/></g><defs><clipPath id="a"><path fill="#fff" d="M.777 0h111v121h-111z"/></clipPath></defs></svg>
